X: 24
T: DEROBEE de MONCONTOUR
M: 6/8
L: 1/8
Q:1/4=60
K:G
|B/2c/2B/2Ad/2 de/2d3/2|B/2c/2B/2Ad/2 de/2d3/2|B/2c/2B/2Ad/2 de/2d3/2|B/
2c/2B/2Ad/2 de/2d3/2|
d/2c/2B/2A3/2 d/2c/2B/2A3/2|d/2c/2B/2A/2B/2c/2 d/2c/2B/2A/2B/2A/2|G3/2AA
/2 dc/2BG/2|A3/2Bc/2 BA/2G3/2|
G3/2AA/2 dc/2BG/2|A3/2Bc/2 BA/2G3/2|
